X:322
T: ES WOHNT EIN KOENIG AN DEM RHEIN
N: E0182E
O: Europa, Mitteleuropa, Deutschland, Bergisches Land
R: erzaehlendes Volks - Lied, Sage, Familien - Geschichte
M: 2/4
L: 1/16
K: G
GB | d4A4 | d2c2B2A2 | G4B2A2 | G4z2
B2 | A4A2A2 | E4F2F2 | G4F2E2 | D4z2
D2 | G4G2G2 | A4d2d2 | B4A2B2 | G4z2

